static/img/device/component-wall-bracket-xpd2-gdb.svg

<svg width="99" height="150" viewBox="0 0 99 150" fill="none" xmlns="http://www.w3.org/2000/svg">
<path d="M99 0H0V150H99V0Z" fill="white"/>
<path d="M7.61523 124.022H8.76769" stroke="#808080" stroke-width="0.5" stroke-miterlimit="2"/>
<path d="M89.8159 124.022H90.9684" stroke="#808080" stroke-width="0.5" stroke-miterlimit="2"/>
<path d="M45.8394 142.007V140.853" stroke="#808080" stroke-width="0.5" stroke-miterlimit="2"/>
<path d="M52.7441 142.007V140.853" stroke="#808080" stroke-width="0.5" stroke-miterlimit="2"/>
<path d="M19.1245 8.13559V9.28983" stroke="#808080" stroke-width="0.5" stroke-miterlimit="2"/>
<path d="M8.76769 18.0508H7.61523" stroke="#808080" stroke-width="0.5" stroke-miterlimit="2"/>
<path d="M79.4536 9.28983V8.13559" stroke="#808080" stroke-width="0.5" stroke-miterlimit="2"/>
<path d="M90.9684 18.0508H89.8159" stroke="#808080" stroke-width="0.5" stroke-miterlimit="2"/>
<path d="M21.0286 27.2746C21.0286 27.778 20.8002 28.256 20.4143 28.5712C20.0285 28.8915 19.5208 29.0187 19.0283 28.917" stroke="#808080" stroke-width="0.5" stroke-miterlimit="2"/>
<path d="M80.8958 27.2746C80.8958 26.3491 80.1495 25.6017 79.2255 25.6017C78.3015 25.6017 77.5552 26.3491 77.5552 27.2746C77.5552 28.2 78.3015 28.9474 79.2255 28.9474C80.1495 28.9474 80.8958 28.2 80.8958 27.2746Z" stroke="#808080" stroke-width="0.5" stroke-miterlimit="2"/>
<path d="M80.8958 119.522C80.8958 118.597 80.1495 117.849 79.2255 117.849C78.3015 117.849 77.5552 118.597 77.5552 119.522C77.5552 120.447 78.3015 121.195 79.2255 121.195C80.1495 121.195 80.8958 120.447 80.8958 119.522Z" stroke="#808080" stroke-width="0.5" stroke-miterlimit="2"/>
<path d="M21.0286 27.2746C21.0286 26.3491 20.2823 25.6017 19.3583 25.6017C18.4343 25.6017 17.688 26.3491 17.688 27.2746C17.688 28.2 18.4343 28.9474 19.3583 28.9474C20.2823 28.9474 21.0286 28.2 21.0286 27.2746Z" stroke="#808080" stroke-width="0.5" stroke-miterlimit="2"/>
<path d="M21.0286 119.522C21.0286 118.597 20.2823 117.849 19.3583 117.849C18.4343 117.849 17.688 118.597 17.688 119.522C17.688 120.447 18.4343 121.195 19.3583 121.195C20.2823 121.195 21.0286 120.447 21.0286 119.522Z" stroke="#808080" stroke-width="0.5" stroke-miterlimit="2"/>
<path d="M17.4949 11.4763L9.91504 16.8966" stroke="black" stroke-miterlimit="2"/>
<path d="M54.4704 142.007H44.1084" stroke="black" stroke-miterlimit="2"/>
<path d="M44.1084 140.853H54.4704" stroke="black" stroke-width="0.5" stroke-miterlimit="2"/>
<path d="M9.91504 125.171L20.6629 132.864" stroke="black" stroke-miterlimit="2" stroke-linecap="round"/>
<path d="M24.0137 133.937H44.1081" stroke="black" stroke-miterlimit="2" stroke-linecap="round"/>
<path d="M54.4702 133.937H74.5698" stroke="black" stroke-miterlimit="2"/>
<path d="M7.61523 125.171V16.8966" stroke="black" stroke-miterlimit="2"/>
<path d="M8.76807 125.171V16.8966" stroke="black" stroke-width="0.5" stroke-miterlimit="2"/>
<path d="M7.61523 125.171H9.91508" stroke="black" stroke-miterlimit="2" stroke-linecap="round"/>
<path d="M88.6636 125.171H90.9685" stroke="black" stroke-miterlimit="2" stroke-linecap="round"/>
<path d="M17.9771 10.5407V8.13559" stroke="black" stroke-miterlimit="2"/>
<path d="M26.2627 9.28979V11.0186" stroke="black" stroke-width="0.5" stroke-miterlimit="2" stroke-linecap="round"/>
<path d="M30.8726 100.266V53.4508" stroke="black" stroke-width="0.5" stroke-miterlimit="2"/>
<path d="M64.6035 103.378H33.9795" stroke="black" stroke-width="0.5" stroke-miterlimit="2"/>
<path d="M37.7773 11.0186V9.28979" stroke="black" stroke-width="0.5" stroke-miterlimit="2" stroke-linecap="round"/>
<path d="M44.1084 142.007V133.937" stroke="black" stroke-miterlimit="2" stroke-linecap="round"/>
<path d="M46.7026 120.676V111.453" stroke="black" stroke-width="0.5" stroke-miterlimit="2"/>
<path d="M73.8135 83.4153H77.2658" stroke="#808080" stroke-width="0.5" stroke-miterlimit="2"/>
<path d="M73.8135 82.9983H77.2658" stroke="#808080" stroke-width="0.5" stroke-miterlimit="2"/>
<path d="M51.8809 111.453V120.676" stroke="black" stroke-width="0.5" stroke-miterlimit="2"/>
<path d="M54.4702 142.007V133.937" stroke="black" stroke-miterlimit="2" stroke-linecap="round"/>
<path d="M77.2658 81.239H73.8135" stroke="#808080" stroke-width="0.5" stroke-miterlimit="2"/>
<path d="M77.2658 80.4051H73.8135" stroke="#808080" stroke-width="0.5" stroke-miterlimit="2"/>
<path d="M77.2658 80.2322H73.8135" stroke="#808080" stroke-width="0.5" stroke-miterlimit="2"/>
<path d="M77.2658 79.3932H73.8135" stroke="#808080" stroke-width="0.5" stroke-miterlimit="2"/>
<path d="M77.2658 77.6389H73.8135" stroke="#808080" stroke-width="0.5" stroke-miterlimit="2"/>
<path d="M77.2658 77.2169H73.8135" stroke="#808080" stroke-width="0.5" stroke-miterlimit="2"/>
<path d="M60.8062 9.28979V11.0186" stroke="black" stroke-width="0.5" stroke-miterlimit="2" stroke-linecap="round"/>
<path d="M67.7109 53.4508V100.266" stroke="black" stroke-width="0.5" stroke-miterlimit="2"/>
<path d="M72.0869 83.4864V77.1458" stroke="#808080" stroke-width="0.5" stroke-miterlimit="2"/>
<path d="M72.3154 11.0186V9.28979" stroke="black" stroke-width="0.5" stroke-miterlimit="2" stroke-linecap="round"/>
<path d="M73.8135 83.4864V77.1458" stroke="#808080" stroke-width="0.5" stroke-miterlimit="2"/>
<path d="M77.2656 83.4864V77.1458" stroke="#808080" stroke-width="0.5" stroke-miterlimit="2"/>
<path d="M78.9971 77.1458V83.4864" stroke="#808080" stroke-width="0.5" stroke-miterlimit="2"/>
<path d="M80.6064 10.5407V8.13559" stroke="black" stroke-miterlimit="2" stroke-linecap="round"/>
<path d="M33.9795 50.339H64.6035" stroke="black" stroke-width="0.5" stroke-miterlimit="2"/>
<path d="M89.8159 125.171V16.8966" stroke="black" stroke-width="0.5" stroke-miterlimit="2"/>
<path d="M90.9683 125.171V16.8966" stroke="black" stroke-miterlimit="2" stroke-linecap="round"/>
<path d="M77.9155 132.864L88.6634 125.171" stroke="black" stroke-miterlimit="2" stroke-linecap="round"/>
<path d="M53.8966 24.1068H44.687" stroke="black" stroke-width="0.5" stroke-miterlimit="2"/>
<path d="M44.687 18.9152H53.8966" stroke="black" stroke-width="0.5" stroke-miterlimit="2"/>
<path d="M7.61523 16.8966H9.91508" stroke="black" stroke-miterlimit="2" stroke-linecap="round"/>
<path d="M88.6636 16.8966H90.9685" stroke="black" stroke-miterlimit="2" stroke-linecap="round"/>
<path d="M72.3155 11.0186H60.8062" stroke="black" stroke-width="0.5" stroke-miterlimit="2"/>
<path d="M37.7772 11.0186H26.2627" stroke="black" stroke-width="0.5" stroke-miterlimit="2"/>
<path d="M17.9771 9.28979H80.606" stroke="black" stroke-width="0.5" stroke-miterlimit="2"/>
<path d="M17.9771 8.13559H80.606" stroke="black" stroke-miterlimit="2" stroke-linecap="round"/>
<path d="M88.6631 16.8966L81.0884 11.4763" stroke="black" stroke-miterlimit="2"/>
<path d="M74.5698 133.937C75.768 133.937 76.9407 133.561 77.9155 132.864" stroke="black" stroke-miterlimit="2"/>
<path d="M20.6631 132.864C21.6379 133.561 22.8106 133.937 24.0088 133.937" stroke="black" stroke-miterlimit="2"/>
<path d="M33.9796 50.339C32.2636 50.339 30.8726 51.7322 30.8726 53.4509" stroke="black" stroke-width="0.5" stroke-miterlimit="2"/>
<path d="M67.7111 53.4509C67.7111 51.7322 66.32 50.339 64.604 50.339" stroke="black" stroke-width="0.5" stroke-miterlimit="2"/>
<path d="M64.604 103.378C66.32 103.378 67.7111 101.985 67.7111 100.266" stroke="black" stroke-width="0.5" stroke-miterlimit="2"/>
<path d="M30.8726 100.266C30.8726 101.985 32.2636 103.378 33.9796 103.378" stroke="black" stroke-width="0.5" stroke-miterlimit="2"/>
<path d="M49.2919 108.854C47.8602 108.854 46.7026 110.014 46.7026 111.447M51.8811 111.453C51.8811 110.019 50.7236 108.859 49.2919 108.859" stroke="black" stroke-width="0.5" stroke-miterlimit="2"/>
<path d="M51.8811 120.676C51.8811 122.11 50.7236 123.269 49.2919 123.269C47.8602 123.269 46.7026 122.11 46.7026 120.676" stroke="black" stroke-width="0.5" stroke-miterlimit="2"/>
<path d="M44.6869 24.1017C43.2552 24.1017 42.0977 22.9423 42.0977 21.5084C42.0977 20.0745 43.2552 18.9152 44.6869 18.9152" stroke="black" stroke-width="0.5" stroke-miterlimit="2"/>
<path d="M53.8965 18.9152C55.3282 18.9152 56.4857 20.0745 56.4857 21.5084C56.4857 22.9423 55.3282 24.1017 53.8965 24.1017" stroke="black" stroke-width="0.5" stroke-miterlimit="2"/>
<path d="M80.6064 10.5407C80.6064 10.9119 80.7841 11.2627 81.0888 11.4814" stroke="black" stroke-miterlimit="2"/>
<path d="M17.4951 11.4763C17.7997 11.2576 17.9774 10.9119 17.9774 10.5356" stroke="black" stroke-miterlimit="2"/>
<path d="M72.0869 77.1457C72.0869 76.6678 72.4728 76.2813 72.95 76.2813C73.4272 76.2813 73.8131 76.6678 73.8131 77.1457" stroke="#808080" stroke-width="0.5" stroke-miterlimit="2"/>
<path d="M72.95 84.3559C73.4272 84.3559 73.8131 83.9695 73.8131 83.4915M72.0869 83.4864C72.0869 83.9644 72.4728 84.3508 72.95 84.3508" stroke="#808080" stroke-width="0.5" stroke-miterlimit="2"/>
<path d="M78.1338 84.3559C78.611 84.3559 78.9969 83.9695 78.9969 83.4915M77.2656 83.4864C77.2656 83.9644 77.6515 84.3508 78.1287 84.3508" stroke="#808080" stroke-width="0.5" stroke-miterlimit="2"/>
<path d="M77.2705 77.1457C77.2705 76.6678 77.6564 76.2813 78.1336 76.2813C78.6108 76.2813 78.9967 76.6678 78.9967 77.1457" stroke="#808080" stroke-width="0.5" stroke-miterlimit="2"/>
</svg>

<svg xmlns="http://www.w3.org/2000/svg" width="99" height="150" fill="none" viewBox="0 0 99 150"><path fill="#fff" d="M99 0H0v150h99z"/><path stroke="gray" stroke-miterlimit="2" stroke-width=".5" d="M7.615 124.022h1.153M89.816 124.022h1.152M45.84 142.007v-1.154M52.744 142.007v-1.154M19.125 8.136V9.29M8.768 18.05H7.615M79.454 9.29V8.136M90.968 18.05h-1.152M21.029 27.275c0 .503-.229.981-.615 1.296-.386.32-.893.448-1.386.346M80.896 27.275a1.67 1.67 0 1 0-3.34 0 1.67 1.67 0 1 0 3.34 0ZM80.896 119.522a1.67 1.67 0 1 0-3.34 0 1.67 1.67 0 1 0 3.34 0Z"/><path stroke="gray" stroke-miterlimit="2" stroke-width=".5" d="M21.029 27.275a1.67 1.67 0 1 0-3.341 0 1.67 1.67 0 1 0 3.34 0ZM21.029 119.522a1.67 1.67 0 1 0-3.341 0 1.67 1.67 0 1 0 3.34 0Z"/><path stroke="#000" stroke-miterlimit="2" d="m17.495 11.476-7.58 5.42M54.47 142.007H44.108"/><path stroke="#000" stroke-miterlimit="2" stroke-width=".5" d="M44.108 140.853H54.47"/><path stroke="#000" stroke-linecap="round" stroke-miterlimit="2" d="m9.915 125.171 10.748 7.693M24.014 133.937h20.094"/><path stroke="#000" stroke-miterlimit="2" d="M54.47 133.937h20.1M7.615 125.171V16.897"/><path stroke="#000" stroke-miterlimit="2" stroke-width=".5" d="M8.768 125.171V16.897"/><path stroke="#000" stroke-linecap="round" stroke-miterlimit="2" d="M7.615 125.171h2.3M88.664 125.171h2.305"/><path stroke="#000" stroke-miterlimit="2" d="M17.977 10.54V8.137"/><path stroke="#000" stroke-linecap="round" stroke-miterlimit="2" stroke-width=".5" d="M26.263 9.29v1.729"/><path stroke="#000" stroke-miterlimit="2" stroke-width=".5" d="M30.873 100.266V53.451M64.604 103.378H33.98"/><path stroke="#000" stroke-linecap="round" stroke-miterlimit="2" stroke-width=".5" d="M37.777 11.019v-1.73"/><path stroke="#000" stroke-linecap="round" stroke-miterlimit="2" d="M44.108 142.007v-8.07"/><path stroke="#000" stroke-miterlimit="2" stroke-width=".5" d="M46.703 120.676v-9.223"/><path stroke="gray" stroke-miterlimit="2" stroke-width=".5" d="M73.814 83.415h3.452M73.814 82.998h3.452"/><path stroke="#000" stroke-miterlimit="2" stroke-width=".5" d="M51.88 111.453v9.223"/><path stroke="#000" stroke-linecap="round" stroke-miterlimit="2" d="M54.47 142.007v-8.07"/><path stroke="gray" stroke-miterlimit="2" stroke-width=".5" d="M77.266 81.239h-3.453M77.266 80.405h-3.453M77.266 80.232h-3.453M77.266 79.393h-3.453M77.266 77.639h-3.453M77.266 77.217h-3.453"/><path stroke="#000" stroke-linecap="round" stroke-miterlimit="2" stroke-width=".5" d="M60.806 9.29v1.729"/><path stroke="#000" stroke-miterlimit="2" stroke-width=".5" d="M67.71 53.45v46.816"/><path stroke="gray" stroke-miterlimit="2" stroke-width=".5" d="M72.087 83.486v-6.34"/><path stroke="#000" stroke-linecap="round" stroke-miterlimit="2" stroke-width=".5" d="M72.315 11.019v-1.73"/><path stroke="gray" stroke-miterlimit="2" stroke-width=".5" d="M73.814 83.486v-6.34M77.266 83.486v-6.34M78.997 77.146v6.34"/><path stroke="#000" stroke-linecap="round" stroke-miterlimit="2" d="M80.606 10.54V8.137"/><path stroke="#000" stroke-miterlimit="2" stroke-width=".5" d="M33.98 50.339h30.624M89.816 125.171V16.897"/><path stroke="#000" stroke-linecap="round" stroke-miterlimit="2" d="M90.968 125.171V16.897M77.916 132.864l10.747-7.693"/><path stroke="#000" stroke-miterlimit="2" stroke-width=".5" d="M53.897 24.107h-9.21M44.687 18.915h9.21"/><path stroke="#000" stroke-linecap="round" stroke-miterlimit="2" d="M7.615 16.897h2.3M88.664 16.897h2.305"/><path stroke="#000" stroke-miterlimit="2" stroke-width=".5" d="M72.316 11.019h-11.51M37.777 11.019H26.263M17.977 9.29h62.629"/><path stroke="#000" stroke-linecap="round" stroke-miterlimit="2" d="M17.977 8.136h62.629"/><path stroke="#000" stroke-miterlimit="2" d="m88.663 16.897-7.575-5.42M74.57 133.937a5.76 5.76 0 0 0 3.346-1.073M20.663 132.864a5.76 5.76 0 0 0 3.346 1.073"/><path stroke="#000" stroke-miterlimit="2" stroke-width=".5" d="M33.98 50.339a3.11 3.11 0 0 0-3.107 3.112M67.711 53.45a3.11 3.11 0 0 0-3.107-3.111M64.604 103.378a3.11 3.11 0 0 0 3.107-3.112M30.873 100.266a3.11 3.11 0 0 0 3.107 3.112M49.292 108.854a2.59 2.59 0 0 0-2.59 2.593m5.18.006a2.59 2.59 0 0 0-2.59-2.594M51.881 120.676a2.589 2.589 0 1 1-5.178 0M44.687 24.102a2.59 2.59 0 0 1-2.59-2.594 2.59 2.59 0 0 1 2.59-2.593M53.897 18.915c1.431 0 2.589 1.16 2.589 2.593a2.59 2.59 0 0 1-2.59 2.594"/><path stroke="#000" stroke-miterlimit="2" d="M80.606 10.54c0 .372.178.723.483.941M17.495 11.476a1.15 1.15 0 0 0 .482-.94"/><path stroke="gray" stroke-miterlimit="2" stroke-width=".5" d="M72.087 77.146a.863.863 0 1 1 1.726 0M72.95 84.356a.863.863 0 0 0 .863-.864m-1.726-.006c0 .478.386.865.863.865M78.134 84.356a.863.863 0 0 0 .863-.864m-1.731-.006c0 .478.385.865.863.865M77.27 77.146a.863.863 0 1 1 1.727 0"/></svg>
